X:1
T:EL RATÓN
T:EL RATÓN
T:TANGO DE LA CADERA
T:Francisco Tàrrega
T:by IMSLP - Pubblico dominio
T:by IMSLP - Pubblico dominio
C:Francisco Tàrrega
Z:by IMSLP - Pubblico dominio
%%score ( 1 2 )
L:1/8
M:2/4
K:D
V:1 treble-8 nm="Chitarra classica" snm="Chit. cl."
V:2 treble-8 
V:1
 A, | D>[dfb] [dfa]2 | C>[cgb] [cga]b | (a/g/)(e/c/) B[GA] | ([Fd]/e/)f/g/ a2 | D>[dfb] [dfa]2 | %6
 C>[cgb] [cga]b | (a/g/)(e/c/) B[GAc] | [FAd]2 fg || (3afg af/g/ | af z f/g/ | a[gb] g[ce] | %12
 (3(a/b/a/)f z f/g/ | (3afg af/g/ | af z f/g/ | a[gb] g[ce] | (3(a/b/a/)f z f/g/ | %17
 d'(f' d')e'/d'/ | e' a2 a/b/ | (3([gb]/c'/b/)a/b/ (3([gb]/c'/b/)a/b/ | (3([fb]/c'/b/)a z d'/e'/ | %21
 (3c'd'b c' (3([fa]/b/a/) | [cg]3 c'/d'/ | (3[gb]c'a b(3[eg]/a/g/ | [df]3 f/a/ | d' f'2 (e'/d'/) | %26
 e'a z a/b/ | (3([gb]/c'/b/)a/b/ (3([gb]/c'/b/)a/b/ | (3([fb]/c'/b/)a z d'/e'/ | d' d'2 e'/d'/ | %30
 [ac'] e'2 e'/f'/ | (3f'bc' (3d'/e'/d'/c'/b/ | a a/"_a tempo"A/ a2 | z a/A/ a2 | z a/A/ a2 | %35
 z a/A/ !fermata!a (d'/c'/){c'} || a>b [eg]>[ca] | [df] [fa]2 d'/c'/ | a>b [eg][ca] | %39
 [df] [fa] z (3z/{/=c'} b/^a/ |"_accelerando" (3b{/=c'}b^a (3b{/c'}b^a | %41
 (3b{/=c'}b^a !fermata!b (b/d'/) | (3c'/d'/c'/b/a/ (3gfe | f a2 (d'/c'/){a} | [ca]>b [eg][ca] | %45
 [df] [fa]2 (d'/c'/){a} | [ca]>b [eg][ca] | [df] [fa] z (3z/{/=c'} b/^a/ | %48
 (3b{/=c'}b^a (3b{/c'}b^a | (3b{/=c'}b^a !fermata!b (b/d'/) | (3c'/d'/c'/b/a/ (3gfe | d2 z A, || %52
 D>[dfb] [dfa]2 | C>[cgb] [cga]b | (a/g/)(e/c/) B[GA] | (d/e/)(f/g/) a2 | D>[dfb] [dfa]2 | %57
 C>[cgb] [cga]b | (a/g/)(e/c/) B[GAc] | [FAd]a/A/ a[egc'] | [dfd']a/A/ a[egc'] | %61
 [fad']/a/d'/a/ d'[cga] | [fad'] z D z |] %63
V:2
 x | D,2 x A, | C3/2 z/ z A, | E3 A, | D,3 A, | D,2 x A, | C3/2 z/ z A, | E3 A, | D,2 z2 || %9
 D,>A dA | D,>A dA | E2 A,2 | D,>A dA | D,>A dA | D,>A dA | E2 A,2 | D,>A dA | D,>f aA | c>g aA | %19
 E2 A,2 | D,>A dA | [Fd]3 A, | E>A cA | E3 A, | D,>A dA, | D,>f aA | c>g aA | E2 A,2 | D,>A dA | %29
 D,>f aD | E>E e z | [^Gd] z [e^g]2 | [A,d] z z [A,A] | [G,G]3 [A,A] | [F,F]3 [F,F] | [E,E]3 A, || %36
 [EA]2 z A, | D,>A, DA, | E2 z A, | D,>A, D z | [^DB]2 [DB]2 | [EG]3 z | [Ag]2 [A,c]2 | F,>A, DC | %44
 E2 z A, | F,>A, DC | E2 z A, | D,>A, D z | [^DB]2 [DB]2 | [EG]3 z | [Ag]2 [A,c]2 | [D,F]2 x2 || %52
 D,3 A, | C3/2 z/ z A, | E3 A, | [D,F]2 A, x | D,2 A, x | C3/2 z/ z A, | E2 x A, | D,2 A, x | %60
 D,2 x A, | E2 x A, | D z B,, z |] %63

